Origami/32x32/apps/kube.svg

<svg width="32" height="32" version="1" xmlns="http://www.w3.org/2000/svg">
 <rect transform="matrix(0,-1,-1,0,0,0)" x="-31" y="-30" width="28" height="28" rx="1.4" ry="1.4" style="opacity:.2"/>
 <rect transform="matrix(0,-1,-1,0,0,0)" x="-30" y="-30" width="28" height="28" rx="1.4" ry="1.4" style="fill:#ef5a30"/>
 <path d="m 8,7 0,20 4,0 0,-4.285156 L 14.5,27 19,27 15.314453,20.5 19,14 14.5,14 12,18.285156 12,7 8,7 Z M 20.5,14 17,20 16.699219,20.5 17,21 20.5,27 25,27 21.314453,20.5 25,14 20.5,14 Z" style="opacity:.2"/>
 <path d="m12 6h-4v20h4z" style="fill:#ffffff"/>
 <path d="m20.5 13-3.5 6-0.3 0.5 0.3 0.5 3.5 6h4.5l-3.685547-6.5 3.685547-6.5z" style="fill:#ffffff"/>
 <path d="m14.5 13-3.5 6-0.3 0.5 0.3 0.5 3.5 6h4.5l-3.685547-6.5 3.685547-6.5z" style="fill:#ffffff"/>
 <path d="M 3.4003906 2 C 2.6247906 2 2 2.6247906 2 3.4003906 L 2 4.4003906 C 2 3.6247906 2.6247906 3 3.4003906 3 L 28.599609 3 C 29.375209 3 30 3.6247906 30 4.4003906 L 30 3.4003906 C 30 2.6247906 29.375209 2 28.599609 2 L 3.4003906 2 z" style="fill:#ffffff;opacity:.2"/>
</svg>

<svg xmlns="http://www.w3.org/2000/svg" width="32" height="32" version="1">
 <rect style="opacity:0.2" width="28" height="28" x="-31" y="-30" rx="1.4" ry="1.4" transform="matrix(0,-1,-1,0,0,0)"/>
 <rect style="fill:#ef5a30" width="28" height="28" x="-30" y="-30" rx="1.4" ry="1.4" transform="matrix(0,-1,-1,0,0,0)"/>
 <path style="opacity:0.2" d="m 8,7 0,20 4,0 0,-4.285156 L 14.5,27 19,27 15.314453,20.5 19,14 14.5,14 12,18.285156 12,7 8,7 Z M 20.5,14 17,20 16.699219,20.5 17,21 20.5,27 25,27 21.314453,20.5 25,14 20.5,14 Z"/>
 <path style="fill:#ffffff" d="m 12,6 -4,0 0,20 4,0 z"/>
 <path style="fill:#ffffff" d="M 20.5,13 17,19 16.7,19.5 17,20 20.5,26 25,26 21.314453,19.5 25,13 Z"/>
 <path style="fill:#ffffff" d="M 14.5,13 11,19 10.7,19.5 11,20 14.5,26 19,26 15.314453,19.5 19,13 Z"/>
 <path style="fill:#ffffff;opacity:0.2" d="M 3.4003906 2 C 2.6247906 2 2 2.6247906 2 3.4003906 L 2 4.4003906 C 2 3.6247906 2.6247906 3 3.4003906 3 L 28.599609 3 C 29.375209 3 30 3.6247906 30 4.4003906 L 30 3.4003906 C 30 2.6247906 29.375209 2 28.599609 2 L 3.4003906 2 z"/>
</svg>
